!!!OTL: Hongdeng zhaodeming
!!!ARE: Asia, China,ÿGansu Zhenyuan
!! I, 106, 1)
!!!SCT: C1801
!!!YEM: Copyright 1995, estate of Helmut Schaffrath.
**kern
*ICvox
*Ivox
*M2/4
*k[b-]
*F:
{8a
16a
16cc
8a
8cc
=1
8dd
4dd
8ff
=2
8cc
8ff
16dd
16cc
16a
16cc
=3
2g}
=4
{8cc
8a
8ff
16dd
16cc
=5
8a
8cc
4f
=6
8g
8g
8g
8c
=7
4d
8g
16f
16g
=8
4d
4r}
==
!!!AGN: Xiaodiao, Wanr huadeng
!! Han
!!!ONB: ESAC (Essen Associative Code) Database: SENGANSU
!!!AMT: simple duple
!!!AIN: vox
!!!EED: Helmut Schaffrath
!!!EEV: 1.0
*-
